X: 3
T: The Atholl Highlanders
R: jig
M: 6/8
L: 1/8
K: Amix
|: ecc acc|acc Bcd|ecc acc|Bcd cBA|ecc acc|acc Bcd|eae fed|cdB A3 :|


Tune 107	Setting 24807

